!!!COM: Bach, Johann Sebastian
!!!OPR: Das wohltemperirte Clavier, Band I
!!!XEN: The Well-Tempered Clavier, Volume I
!!!OTL: Prelude in B-flat Minor
!!!OMV: Prelude XXII
!!!SCT: BWV 867
!!!SCA: Thematisch-systematisches Verzeichnis der musikalischen Werke Johann Sebastian Bach: Bach-Werke-Verzeichnis (Schmieder)
!!!YOR: Bach Gesellschaft Edition xiv
!!!ENC: Walter Hewlett
!!!CDT: 1685/3//-1750/7/28/
!!!OCY: Deutschland
!!!YEC: Copyright (c) 1994, 2000 Center for Computer Assisted Research in the Humanities
!!!YEM: Rights to all derivative editions reserved
!!!YEN: United States of America
**kern
*k[b-e-a-d-g-]
*b-:
*M4/4
*MM120
=1-
*^
*^	*
*^	*	*
8r	8r	4d-/	8B-\L
16b-/LL	8f/	.	8B-\
16cc/JJ	.	.	.
8dd-/ 8b-/L	8r	8r	8B-\
8dd-/ 8b-/J	8f\	8d-/	8B-\J
8dd-/ 8b-/L	4g-\	4e-/	8B-\L
16cc/ 16an/L	.	.	8B-\
16dd-/ 16b-/JJ	.	.	.
8ee-/ 8cc/L	8r	8r	8B-\
8ee-/ 8cc/ 8an/J	8g-\ 8e-\	8c/	8B-\J
=2	=2	=2	=2
8ee-/ 8cc/L	4f\	4d-/	8B-\L
16dd-/ 16b-/L	.	.	8B-\
16ee-/ 16cc/JJ	.	.	.
8ff/ 8dd-/L	8r	8r	8B-\
8ff/ 8dd-/J	8f\	8d-/	8B-\J
8ff/ 8dd-/L	4an\	4c/	8B-\L
16ee-/ 16cc/L	.	.	8B-\
16ff/ 16dd-/JJ	.	.	.
8gg-/ 8ee-/L	8r	8r	8B-\
8gg-/ 8ee-/J	8a\	8c/	8B-\J
=3	=3	=3	=3
*^	*	*	*
8gg-/L	8ee-\L	4b-\	8B-/	8B-\L
16ff/L	8dd-\J	.	8ryy	16B-\L
16ee-/JJ	.	.	.	16c\JJ
8ff/L	4ryy	8r	8r	8d-\L
[8ff/J	.	8dd-\ 8b-\	8ryy	8d-\J
8ff/L]	2ryy	4b-/	8gn\L	8d-\L
16ee-/L	.	.	8g-\J	16c\L
16dd-/JJ	.	.	.	16d-\JJ
8cc/L	.	8r	8r	8e-\L
16dd-/L	.	8b-\ 8g-\	8ryy	8e-\J
16ee-/JJ	.	.	.	.
=4	=4	=4	=4	=4
*v	*v	*	*	*
8an/L	8f/L	4f\	8e-\L
[8ff/J	16b-/L	.	16d-\L
.	16cc/JJ	.	16e-\JJ
8ff/L]	[4dd-\	8r	8f\L
16ggn/L	.	8f/	8f\J
16aan/JJ	.	.	.
4.bb-/	8dd-\L]	[2g-/	8f\L
.	16cc\L	.	16e-\L
.	16dd-\JJ	.	16d-\JJ
.	[4ee-\	.	8c\L
16aan/LL	.	.	8B-\J
16bb-/JJ	.	.	.
=5	=5	=5	=5
4.ccc/	8ee-/L]	8g-/L]	4.An\
.	16gg-/L	16ee-\L	.
.	16ff/JJ	16dd-\JJ	.
.	[4ee-/	[4cc\	.
16ccc/LL	.	.	16A\LL
16bb-/JJ	.	.	16B-\JJ
4.aan/	8ee-/L]	8cc\L]	4.c\
.	16ee-/L	16cc\L	.
.	16dd-/JJ	16b-\JJ	.
.	[4cc/	[4an\	.
16aa/LL	.	.	16c\LL
16ccc/JJ	.	.	16d-\JJ
=6	=6	=6	=6
[1ff/	8cc/L]	8a\L]	4.e-\
.	16an/L	16f\L	.
.	16b-/JJ	16gn\JJ	.
.	8cc/L	[4an\	.
.	16cc/L	.	16e-\LL
.	16dd-/JJ	.	16d-\JJ
.	8ee-/L	8a\L]	8c\L
.	16cc/L	16a\L	16c\L
.	16dd-/JJ	16b-\JJ	16B-\JJ
.	[4ee-/	8cc\L	8An\L
.	.	8a\J	16Gn\L
.	.	.	16F\JJ
=7	=7	=7	=7
8ff/L]	8ee-\L]	4.f\	[2B-\
16ff/L	16dd-\L	.	.
16ee-/JJ	16cc\JJ	.	.
8dd-/L	8b-/L	.	.
16ee-/L	8an/J	16g-\LL	.
16cc/JJ	.	16e-\JJ	.
8dd-/L	4b-/	4f\	8B-\L]
16b-/L	.	.	16d-\L
16cc/JJ	.	.	16c\JJ
8dd-/L	8r	8r	8B-\L
8dd-/J	8b-\ 8f\	8ryy	8A-\J
=8	=8	=8	=8
8dd-/L	8b-\L 8e-\	4ryy	8Gn\L
16cc/L	8a-\J 8e-\	.	16A-\L
16b-/JJ	.	.	16G\JJ
8cc/L	8r	8r	8F\L
8cc/J	8a-\ 8f\	8ryy	8E-\J
8cc/L	8a-\L 8f\	4ryy	8Dn\L
16b-/L	8gn\J 8f\	.	16Gn\L
16a-/JJ	.	.	16F\JJ
8b-/L	8r	8r	8En\L
8b-/J	8g\ 8f\	8ryy	8G\J
=9	=9	=9	=9
*^	*	*	*
8b-/L	1r	8gn\L 8en\	4ryy	8C\L
16a-/L	.	8f\J 8c\	.	16F\L
16gn/JJ	.	.	.	16E-\JJ
8a-/L	.	8r	8r	8D-\L
8a-/J	.	8f\ 8c\	8ryy	8C\J
8a-/L	.	8f\L 8d-\	4ryy	8BB-\L
16gn/L	.	8d-\J 8B-\	.	8BB-\
16a-/JJ	.	.	.	.
8b-/L	.	8r	8r	8BB-\
8g/J	.	8d-\ 8B-\	8ryy	8BB-\J
=10	=10	=10	=10	=10
*v	*v	*	*	*
8en/L	8c\L	8Gn/L	8BB-\L
[8cc/J	16f\L	[8A-/J	8AA-\
.	16en\JJ	.	.
8cc/L]	8f\L	8A-/L]	8D-\
16b-/L	8f\J	16Gn/L	8D-\J
16a-/JJ	.	16F/JJ	.
8b-/L	8f\L	8G/L	8D-\L
[8b-/J	16en\L	8G/	16C\L
.	16dn\JJ	.	16BB-\JJ
8b-/L]	8e\L	8G/	8C\L
16a-/L	8e\J	8c/J	8C\J
16gn/JJ	.	.	.
=11	=11	=11	=11
8a-/L	8en\L	8c/L	8C\L
[8a-/J	16f\L	[8c/J	8FF\
.	16e-\JJ	.	.
8a-/L]	8d-\L	8c/L]	8BB-\
16g-/L	8d-\J	16B-/L	8BB-\J
16f/JJ	.	16An/JJ	.
8g-/L	8d-\L	8B-/L	8BB-\L
[8dd-/J	16b-\L	16G-/L	8BB-\
.	16an\JJ	16F/JJ	.
8dd-/L]	4b-\	4G-/	8BB-\
16cc/L	.	.	8BB-\J
16b-/JJ	.	.	.
=12	=12	=12	=12
*^	*	*	*
8een/L	4ryy	8cc\L	8Gn/L	8BB-\L
8cc/J	.	16f\L	16A-/L	8AA-\
.	.	16gn\JJ	16G/JJ	.
2ff/	8r	8a-\L	[4F/	8D-\
.	8cc/	8a-\J	.	8C\J
.	8dd-/L	8a-\L	8F/L]	8BB-\L
.	8b-/J	16gn\L	16En/L	8D-\
.	.	16a-\JJ	16F/JJ	.
4een/	8r	8b-\L	8Gn/L	8C\
.	8cc/	8b-\J	8G/J	8C\J
=13	=13	=13	=13	=13
4ff/	8cc\L 8b-\	4ryy	4F/	4FF\
.	16cc\L 16a-\	.	.	.
.	16b-\JJ 16gn\	.	.	.
8r	4cc\ 4a-\	8ryy	4ryy	8r
16ff/LL	.	8r	.	8F\
16ee-/JJ	.	.	.	.
4ddn/	2ryy	16cc-\LL 16a-\	8r	4B-\
.	.	16b-\JJ 16g-\	.	.
.	.	4a-\ 4f\	8ryy	.
8r	.	.	4ryy	8r
16ee-/LL	.	8ryy	.	8B-\
16ff/JJ	.	.	.	.
=14	=14	=14	=14	=14
*v	*v	*	*	*
4gg-/	8r	8r	4E-\
.	16g-/LL	16e-\LL	.
.	16a-/JJ	16f\JJ	.
8r	4b-/	4g-\	8r
16ee-/LL	.	.	8E-\
16dd-/JJ	.	.	.
4cc/	8r	8r	4A-\
.	16e-/LL	16c\LL	.
.	16f/JJ	16d-\JJ	.
8r	4g-/	4e-\	8r
16dd-/LL	.	.	8A-\
16ee-/JJ	.	.	.
=15	=15	=15	=15
4ff/	8r	8r	4D-\
.	16a-/LL	16f\LL	.
.	16g-/JJ	16e-\JJ	.
8r	8f/L	8d-\L	8r
16dd-/LL	8f/J	8d-\J	8D-\
16cc/JJ	.	.	.
8b-/ 8g-/L	4ryy	8d-\L	8G-\L
8b-/ 8g-/J	.	8d-\J	16G-\L
.	.	.	16F\JJ
8gg-/L	8b-/L	8e-\L	8E-\L
16gg-/L	8b-/J	16e-\L	8E-\J
16ff/JJ	.	16f\JJ	.
=16	=16	=16	=16
8ee-/L	8b-/L	8g-\L	8c\L
8ee-/J	16an/L	8g-\J	16c\L
.	16b-/JJ	.	16B-\JJ
8ccc/L	8cc/L	8g-\L	8An\L
16ccc/L	8cc/J	8f\J	8A\J
16bb-/JJ	.	.	.
8aan/L	8ff\L 8cc\	2ryy	8e-\L
8aa/J	8ff\J 8cc\	.	16f\L
.	.	.	16e-\JJ
8bb-/L	8ff\L 8b-\	.	8dn\L
16bb-/L	8ff\J 8b-\	.	8d\J
16aa-/JJ	.	.	.
=17	=17	=17	=17
8gg-/ 8ff/L	2ryy	8b-\L	8e-\L
8gg-/ 8ee-/J	.	8b-\J	16e-\L
.	.	.	16d-\JJ
8gg-/ 8ee-/L	.	8b-\L	8c\L
8gg-/ 8ee-/J	.	16an\L	16c\L
.	.	16b-\JJ	16B-\JJ
8gg-/L	8ee-\L 8cc\	2ryy	8An\L
8ff/J	16dd-\L 16f\	.	8A\J
.	16cc\JJ 16e-\	.	.
8ff/L	8b-\L 8d-\	.	8B-\L
16gg-/L	8b-\J 8d-\	.	16B-\L
16ff/JJ	.	.	16A-\JJ
=18	=18	=18	=18
8ee-/L	8b-\L 8d-\	4ryy	8G-\L
16ee-/L	16an\L 16c\	.	16G-\L
16dd-/JJ	16b-\JJ 16d-\	.	16F\JJ
8cc/ 8b-/L	4ryy	8e-\L	8E-\L
16cc/ 16an/L	.	8f\J	16E-\L
16dd-/ 16b-/JJ	.	.	16D-\JJ
8ee-/ 8an/L	4ryy	8g-\L	8C/L
16cc/ 16a/L	.	8g-\J	16C/L
16dd-/ 16b-/JJ	.	.	16BB-/JJ
8ee-/ 8cc/L	4ryy	8f\L	8AAn/L
16dd-/ 16b-/L	.	8f\J	8FF/J
16cc/ 16a/JJ	.	.	.
=19	=19	=19	=19
[2dd-/	4b-\ 4f\	8ryy	8BB-/L
.	.	8r	16BB-/L
.	.	.	16AA-/JJ
.	8r	8ryy	8GG-/L
.	8b-\ 8f\	8ryy	16GG-/L
.	.	.	16FF/JJ
8dd-/L]	4b-\ 4g-\	8r	8EE-/L
16gg-/L	.	16e-\LL	8EE-/
16ff/JJ	.	16d-\JJ	.
16ee-/LL	8r	4ryy	8EE-/
16dd-/	.	.	.
16cc/	8g-/	.	8EE-/J
16b-/JJ	.	.	.
=20	=20	=20	=20
8an/L	4f/	8c\L	8FF\L
16f/L	.	16An/L	8F\
16gn/JJ	.	16B-/JJ	.
8an/L	8r	8c/L	8F\
8a/ 8f/J	8e-\	8c/J	8F\J
8a/ 8f/L	4d-\	4B-/	8F\L
16gn/ 16en/L	.	.	8F\
16a/ 16f/JJ	.	.	.
8b-/ 8gn/L	8r	8r	8F\
8b-/ 8g/J	8en\	8d-/	8F\J
=21	=21	=21	=21
8b-/ 8gn/L	8en\L	8c/L	8F\L
16an/ 16f/L	8f\J	16c/L	8F\
16b-/ 16g/JJ	.	16d-/JJ	.
8cc/ 8an/L	8r	8e-/L	8F\
8cc/ 8a/J	8f\	8e-/J	8F\J
8cc/ 8a/L	4f\	8d-/L	8F\L
16b-/ 16gn/L	.	16d-/L	8F\
16cc/ 16a/JJ	.	16c/JJ	.
8dd-/ 8b-/L	8r	8B-/L	8F\
8dd-/ 8b-/J	8f\	16B-/L	8F\J
.	.	16A-/JJ	.
=22	=22	=22	=22
8dd-/ 8b-/L	8g-\L	8G-/L	8F\L
16cc/ 16an/L	8g-\J	16G-/L	16E-\L
16dd-/ 16b-/JJ	.	16F/JJ	16D-\JJ
8ee-/ 8cc/L	8an\L 8g-\	8G-/L	8E-\L 8C\
16ee-/ 16cc/L	8a\J 8g-\	8G-/J	16E-\L 16C\
16ff/ 16dd-/JJ	.	.	16D-\JJ 16BB-\
4gg-;/ 4ee-/	4cc\ 4an\ 4g-\	4G-/ 4E-/	4C\ 4AAn;\
8r	8r	4ryy	8r
8ff/ 8cc/	8f\	.	8An\
=23	=23	=23	=23
*^	*	*	*
8dd-/L	8b-/L	8f\L	4ryy	8B-\L
16ee-/L	8b-/J	16B-\L	.	16G-\L
16cc/JJ	.	16g-\JJ	.	16E-\JJ
8dd-/L	8b-\L 8f\	4ryy	[4F/	8F\L
16cc/L	8an\J 8e-\	.	.	8FF\J
16b-/JJ	.	.	.	.
[2b-/	8b-\L 8dn\	2ryy	8F/L]	8BB-\L
.	16f\L 16d\	.	16F/L	8BB-\
.	16g-\JJ 16e-\	.	16E-/JJ	.
.	8a-\L 8f\	.	16Dn/LL	8BB-\
.	.	.	16C/	.
.	8a-\J 8f\	.	16E-/	8BB-\J
.	.	.	16D/JJ	.
=24	=24	=24	=24	=24
*v	*v	*	*	*
1b-;/]	8a-\L 8f\	8Dn/L	8BB-\L
.	[8g-\J [8e-\	16E-/L	8BB-\
.	.	16F/JJ	.
.	8g-\L] 8e-\]	8G-/L	8BB-\
.	16f\L 16dn\	8G-/J	8BB-\J
.	16e-\JJ 16c\	.	.
.	2f;\ 2d\	2F/	2BB-;\
==|!	==|!	==|!	==|!
*-	*-	*-	*-
!!!END: 1994/01/20/
!!!KEY: 2440288885
!!!EMD: Converted from MuseData to Humdrum Dec 19, 2000, by Andreas Kornstaedt using muse2kern.
